icon-themes/breeze_svg/cmd/sc_connectorlinescirclestart.svg

<svg viewBox="0 0 16 16" xmlns="http://www.w3.org/2000/svg">/&gt;<path d="m3.5 2c-.8284269 0-1.5.6715511-1.5 1.5s.6715731 1.5 1.5 1.5c.6558382 0 1.2024102-.4135758 1.40625-1h.09375.8632812l3.5976563 9h.5390625 2v-1h-1.861328l-3.5996095-9h-.5390625-1-.09375c-.2038398-.5864242-.7504118-1-1.40625-1zm0 1c.276142 0 .5.2238504.5.5s-.223858.5-.5.5-.5-.2238504-.5-.5.223858-.5.5-.5z" fill="#4d4d4d"/></svg>

<svg xmlns="http://www.w3.org/2000/svg" viewBox="0 0 16 16">
     />
 <path 
     style="fill:#4d4d4d" 
     d="M 3.5 2 C 2.6715731 2 2 2.6715511 2 3.5 C 2 4.3284489 2.6715731 5 3.5 5 C 4.1558382 5 4.7024102 4.5864242 4.90625 4 L 5 4 L 5.8632812 4 L 9.4609375 13 L 10 13 L 12 13 L 12 12 L 10.138672 12 L 6.5390625 3 L 6 3 L 5 3 L 4.90625 3 C 4.7024102 2.4135758 4.1558382 2 3.5 2 z M 3.5 3 C 3.776142 3 4 3.2238504 4 3.5 C 4 3.7761496 3.776142 4 3.5 4 C 3.223858 4 3 3.7761496 3 3.5 C 3 3.2238504 3.223858 3 3.5 3 z "
     />
 </svg>
